icons/vax.svg

<!--
  - The MIT License (MIT)
  -
  - Copyright (c) 2015-2024 Elior "Mallowigi" Boukhobza
  -
  - Permission is hereby granted, free of charge, to any person obtaining a copy
  - of this software and associated documentation files (the "Software"), to deal
  - in the Software without restriction, including without limitation the rights
  - to use, copy, modify, merge, publish, distribute, sublicense, and/or sell
  - copies of the Software, and to permit persons to whom the Software is
  - furnished to do so, subject to the following conditions:
  -
  - The above copyright notice and this permission notice shall be included in all
  - copies or substantial portions of the Software.
  -
  - THE SOFTWARE IS PROVIDED "AS IS", WITHOUT WARRANTY OF ANY KIND, EXPRESS OR
  - IMPLIED, INCLUDING BUT NOT LIMITED TO THE WARRANTIES OF MERCHANTABILITY,
  - FITNESS FOR A PARTICULAR PURPOSE AND NONINFRINGEMENT. IN NO EVENT SHALL THE
  - AUTHORS OR COPYRIGHT HOLDERS BE LIABLE FOR ANY CLAIM, DAMAGES OR OTHER
  - LIABILITY, WHETHER IN AN ACTION OF CONTRACT, TORT OR OTHERWISE, ARISING FROM,
  - OUT OF OR IN CONNECTION WITH THE SOFTWARE OR THE USE OR OTHER DEALINGS IN THE
  - SOFTWARE.
  -
  -->

<svg  xmlns="http://www.w3.org/2000/svg" version="1.1" viewBox="0 0 512 512" width="16px" height="16px">
  <path fill="#F06292" data-iconColor="Assembly Vax"
        d="M125.519165,138.2930298H81.5735474l0.000061-61.9559326l43.9456177,0.000061L125.519165,138.2930298z M379.1154175,76.3370972h-39.3922729l-0.0001221,61.9559326h39.3922729L379.1154175,76.3370972z M460.0201416,94.1687622l-72.8810425-3.9036255l-0.000061,34.1002808l72.8810425-4.5721436L460.0201416,94.1687622z M190.0889893,237.1688843l53.9966431,96.8598633l53.828125-96.8598633h33.0717163l0.000061-174.2537842c0-10.8082275-8.7617798-19.5700073-19.5699463-19.5700073l-158.8244019-0.0001221c-10.8082275,0-19.5700073,8.7617798-19.5700073,19.5700073l-0.000061,174.2539062H190.0889893z M133.0210571,284.9716797l-0.000061,164.1132202c0,10.8081665,8.7617798,19.5699463,19.5699463,19.5700073l81.7216187,0.000061L133.0210571,284.9716797z M81.5733032,432.8251343l43.9456177,0.000061l0.000061-61.9559326l-43.9456177-0.000061L81.5733032,432.8251343z M0.0001221,119.7929688l72.8811035,4.5722656V90.2648926L0.0001831,94.168457L0.0001221,119.7929688z M0,414.3250732l72.8810425,4.5722656l0.000061-34.1003418L0,388.7005615V414.3250732z M243.9586792,443.8596497l102.4672546-185.373291h-37.1135254l-65.3537292,117.5993347L178.60495,256.7408447h-37.1135254L243.9586792,443.8596497z M262.7915649,437.5239258l99.5348511-178.3474731l53.9281921,100.8342285l7.7693176-14.8572083l-45.9303894-85.7334595h36.7900085l28.1066284,51.878479l29.2492065-50.1329651h37.70401l-48.8057556,85.8349304l50.8623352,93.1417542h-36.1044617l-33.1338196-59.9159851l-33.4956665,59.0432434h-37.2470093l18.3188171-32.6371765h-74.1702881l-16.8144836,30.8916321H262.7915649z M385.8986511,372.9493408l-24.3420105-45.764801l-25.0181885,45.764801H385.8986511z M125.5190125,272.6918945l-43.9456253-0.0000305l-0.0000763,61.9559326h43.94561L125.5190125,272.6918945z M72.8811035,286.6196594l-72.8810806,3.9035339l-0.0000159,25.6245117l72.881073,4.5722961L72.8811035,286.6196594z M125.5190506,237.1688843H81.5734329l0.0000763-62.6543884l43.9456177,0.0000305L125.5190506,237.1688843z M339.7229614,174.5144958l39.3922729,0.0000305l-0.0000916,62.6543579h-39.3922729L339.7229614,174.5144958z M72.8811417,222.5426178l-72.881073-4.5722656l0.0000172-25.6245117l72.8810806-3.9035492L72.8811417,222.5426178z M387.1390076,188.4425049l72.881073,3.9036407l-0.0000305,25.624527l-72.881073,4.5721588L387.1390076,188.4425049z"/>
</svg>

<svg xmlns="http://www.w3.org/2000/svg" viewBox="0 0 512 512"><path fill="#f06292" d="M125.52 138.293H81.573V76.337h43.945zm253.595-61.956h-39.392v61.956h39.392zM460.02 94.17l-72.88-3.904-.001 34.1 72.881-4.572zm-269.931 143 53.997 96.86 53.828-96.86h33.071V62.915c0-10.808-8.761-19.57-19.57-19.57H152.592c-10.808 0-19.57 8.762-19.57 19.57v174.254zm-57.068 47.803v164.113c0 10.808 8.762 19.57 19.57 19.57h81.722zM81.573 432.825h43.946V370.87H81.573zM0 119.793l72.881 4.572v-34.1L.001 94.168zm0 294.532 72.881 4.572v-34.1L0 388.701zm243.959 29.535 102.467-185.374h-37.114l-65.353 117.6-65.354-119.345H141.49zm18.833-6.336 99.534-178.348 53.929 100.835 7.769-14.858-45.93-85.733h36.79l28.106 51.878 29.25-50.132h37.703L461.138 347 512 440.142h-36.104l-33.134-59.916-33.496 59.043h-37.247l18.319-32.637h-74.17l-16.815 30.892zm123.107-64.575-24.342-45.764-25.019 45.764zm-260.38-100.257H81.573v61.956h43.946zM72.881 286.62 0 290.523v25.625l72.881 4.572zm52.638-49.451H81.573v-62.655h43.946zm214.204-62.655h39.392v62.655h-39.392zM72.881 222.543.001 217.97v-25.624l72.88-3.904zm314.258-34.1 72.881 3.903v25.625l-72.881 4.572z" data-iconColor="Assembly Vax"/></svg>
